flaticon/essential/fax.svg

<svg xmlns="http://www.w3.org/2000/svg" width="32" height="32" viewBox="0 0 24 24">
    <path d="M20 12.800781C21.101562 12.800781 22 11.902344 22 10.800781 22 9.695312 21.101562 8.800781 20 8.800781 18.898438 8.800781 18 9.695312 18 10.800781 18 11.902344 18.898438 12.800781 20 12.800781zM20 9.601562C20.660156 9.601562 21.199219 10.136719 21.199219 10.800781 21.199219 11.460938 20.660156 12 20 12 19.339844 12 18.800781 11.460938 18.800781 10.800781 18.800781 10.136719 19.339844 9.601562 20 9.601562zM7.199219 3.601562L14.398438 3.601562C14.621094 3.601562 14.800781 3.421875 14.800781 3.199219 14.800781 2.980469 14.621094 2.800781 14.398438 2.800781L7.199219 2.800781C6.980469 2.800781 6.800781 2.980469 6.800781 3.199219 6.800781 3.421875 6.980469 3.601562 7.199219 3.601562zM16.800781 4.800781L7.199219 4.800781C6.980469 4.800781 6.800781 4.980469 6.800781 5.199219 6.800781 5.421875 6.980469 5.601562 7.199219 5.601562L16.800781 5.601562C17.019531 5.601562 17.199219 5.421875 17.199219 5.199219 17.199219 4.980469 17.019531 4.800781 16.800781 4.800781zM16.800781 17.199219L7.199219 17.199219C6.980469 17.199219 6.800781 17.378906 6.800781 17.601562 6.800781 17.820312 6.980469 18 7.199219 18L16.800781 18C17.019531 18 17.199219 17.820312 17.199219 17.601562 17.199219 17.378906 17.019531 17.199219 16.800781 17.199219zM16.800781 19.199219L7.199219 19.199219C6.980469 19.199219 6.800781 19.378906 6.800781 19.601562 6.800781 19.820312 6.980469 20 7.199219 20L16.800781 20C17.019531 20 17.199219 19.820312 17.199219 19.601562 17.199219 19.378906 17.019531 19.199219 16.800781 19.199219zM16.800781 19.199219"/>
    <path d="M 20.398438 6.800781 L 20.398438 0 L 3.601562 0 L 3.601562 6.800781 L 0 6.800781 L 0 20.398438 L 2.398438 20.398438 L 2.398438 21.601562 L 3.601562 21.601562 L 3.601562 24 L 20.398438 24 L 20.398438 21.601562 L 21.601562 21.601562 L 21.601562 20.398438 L 24 20.398438 L 24 6.800781 Z M 4.398438 0.800781 L 19.601562 0.800781 L 19.601562 6.800781 L 4.398438 6.800781 Z M 3.601562 7.601562 L 23.199219 7.601562 L 23.199219 14 L 0.800781 14 L 0.800781 7.601562 Z M 3.199219 20.800781 L 3.199219 18 C 3.199219 17.777344 3.019531 17.601562 2.800781 17.601562 C 2.578125 17.601562 2.398438 17.777344 2.398438 18 L 2.398438 19.601562 L 0.800781 19.601562 L 0.800781 14.800781 L 3.601562 14.800781 L 3.601562 20.800781 Z M 19.601562 23.199219 L 4.398438 23.199219 L 4.398438 14.800781 L 19.601562 14.800781 Z M 21.601562 19.601562 L 21.601562 18 C 21.601562 17.777344 21.421875 17.601562 21.199219 17.601562 C 20.980469 17.601562 20.800781 17.777344 20.800781 18 L 20.800781 20.800781 L 20.398438 20.800781 L 20.398438 14.800781 L 23.199219 14.800781 L 23.199219 19.601562 Z M 21.601562 19.601562"/>
    <path d="M2.398438 9.601562L3.601562 9.601562C3.820312 9.601562 4 9.421875 4 9.199219 4 8.980469 3.820312 8.800781 3.601562 8.800781L2.398438 8.800781C2.179688 8.800781 2 8.980469 2 9.199219 2 9.421875 2.179688 9.601562 2.398438 9.601562zM2.398438 11.199219L3.601562 11.199219C3.820312 11.199219 4 11.019531 4 10.800781 4 10.578125 3.820312 10.398438 3.601562 10.398438L2.398438 10.398438C2.179688 10.398438 2 10.578125 2 10.800781 2 11.019531 2.179688 11.199219 2.398438 11.199219zM2.398438 12.800781L3.601562 12.800781C3.820312 12.800781 4 12.621094 4 12.398438 4 12.179688 3.820312 12 3.601562 12L2.398438 12C2.179688 12 2 12.179688 2 12.398438 2 12.621094 2.179688 12.800781 2.398438 12.800781zM5.199219 9.601562L6.398438 9.601562C6.621094 9.601562 6.800781 9.421875 6.800781 9.199219 6.800781 8.980469 6.621094 8.800781 6.398438 8.800781L5.199219 8.800781C4.980469 8.800781 4.800781 8.980469 4.800781 9.199219 4.800781 9.421875 4.980469 9.601562 5.199219 9.601562zM5.199219 11.199219L6.398438 11.199219C6.621094 11.199219 6.800781 11.019531 6.800781 10.800781 6.800781 10.578125 6.621094 10.398438 6.398438 10.398438L5.199219 10.398438C4.980469 10.398438 4.800781 10.578125 4.800781 10.800781 4.800781 11.019531 4.980469 11.199219 5.199219 11.199219zM5.199219 12.800781L6.398438 12.800781C6.621094 12.800781 6.800781 12.621094 6.800781 12.398438 6.800781 12.179688 6.621094 12 6.398438 12L5.199219 12C4.980469 12 4.800781 12.179688 4.800781 12.398438 4.800781 12.621094 4.980469 12.800781 5.199219 12.800781zM8 9.601562L9.199219 9.601562C9.421875 9.601562 9.601562 9.421875 9.601562 9.199219 9.601562 8.980469 9.421875 8.800781 9.199219 8.800781L8 8.800781C7.777344 8.800781 7.601562 8.980469 7.601562 9.199219 7.601562 9.421875 7.777344 9.601562 8 9.601562zM8 11.199219L9.199219 11.199219C9.421875 11.199219 9.601562 11.019531 9.601562 10.800781 9.601562 10.578125 9.421875 10.398438 9.199219 10.398438L8 10.398438C7.777344 10.398438 7.601562 10.578125 7.601562 10.800781 7.601562 11.019531 7.777344 11.199219 8 11.199219zM8 12.800781L9.199219 12.800781C9.421875 12.800781 9.601562 12.621094 9.601562 12.398438 9.601562 12.179688 9.421875 12 9.199219 12L8 12C7.777344 12 7.601562 12.179688 7.601562 12.398438 7.601562 12.621094 7.777344 12.800781 8 12.800781zM8 12.800781"/>
</svg>

<svg xmlns="http://www.w3.org/2000/svg" width="32" height="32" viewBox="0 0 24 24">
    <path d="M20 12.8c1.102 0 2-.898 2-2 0-1.105-.898-2-2-2-1.102 0-2 .895-2 2 0 1.102.898 2 2 2zm0-3.198A1.2 1.2 0 1 1 20 12a1.2 1.2 0 0 1 0-2.4zm0 0M7.2 3.602h7.198a.401.401 0 0 0 0-.8L7.2 2.8a.4.4 0 0 0 0 .8zm0 0M16.8 4.8H7.2a.4.4 0 0 0 0 .802h9.6a.401.401 0 0 0 0-.801zm0 0M16.8 17.2H7.2a.401.401 0 0 0 0 .8h9.6a.4.4 0 0 0 0-.8zm0 0M16.8 19.2H7.2a.401.401 0 0 0 0 .8h9.6a.4.4 0 0 0 0-.8zm0 0"/>
    <path d="M20.398 6.8V0H3.602v6.8H0v13.598h2.398v1.204h1.204V24h16.796v-2.398h1.204v-1.204H24V6.801zm-16-6h15.204v6H4.398zm-.796 6.802h19.597V14H.801V7.602zM3.199 20.8V18a.398.398 0 0 0-.398-.398.398.398 0 0 0-.403.398v1.602H.801V14.8h2.8v6zm16.403 2.398H4.398v-8.398h15.204zm2-3.597V18a.398.398 0 0 0-.403-.398.398.398 0 0 0-.398.398v2.8h-.403v-6H23.2v4.802zm0 0"/>
    <path d="M2.398 9.602h1.204a.401.401 0 0 0 0-.801H2.398a.4.4 0 0 0 0 .8zm0 0M2.398 11.2h1.204a.4.4 0 0 0 0-.802H2.398a.401.401 0 0 0 0 .801zm0 0M2.398 12.8h1.204a.401.401 0 0 0 0-.8H2.398a.4.4 0 0 0 0 .8zm0 0M5.2 9.602h1.198a.401.401 0 0 0 0-.8L5.2 8.8a.4.4 0 0 0 0 .8zm0 0M5.2 11.2h1.198a.401.401 0 1 0 0-.802H5.2a.401.401 0 0 0 0 .801zm0 0M5.2 12.8h1.198a.401.401 0 0 0 0-.8H5.2a.4.4 0 0 0 0 .8zm0 0M8 9.602h1.2a.401.401 0 0 0 0-.8L8 8.8a.398.398 0 0 0-.398.398c0 .223.175.403.398.403zm0 0M8 11.2h1.2a.401.401 0 1 0 0-.802H8a.398.398 0 0 0-.398.403c0 .219.175.398.398.398zm0 0M8 12.8h1.2a.401.401 0 0 0 0-.8H8a.398.398 0 0 0-.398.398c0 .223.175.403.398.403zm0 0"/>
</svg>
